icons/1_Primary/IDCloudHost.svg

<svg width="1024" height="1024" viewBox="0 0 1024 1024" fill="none" xmlns="http://www.w3.org/2000/svg">
<g clip-path="url(#clip0_2_2484)">
<path d="M512 1024C794.77 1024 1024 794.77 1024 512C1024 229.23 794.77 0 512 0C229.23 0 0 229.23 0 512C0 794.77 229.23 1024 512 1024Z" fill="#9ABEFF"/>
<path d="M566 518.65C572.22 524.863 576.04 531.79 577.46 539.43V557.49C576.04 565.043 572.22 571.93 566 578.15C560.112 584.058 552.604 588.086 544.426 589.724C536.247 591.362 527.767 590.536 520.058 587.351C512.349 584.166 505.759 578.765 501.122 571.832C496.485 564.899 494.01 556.746 494.01 548.405C494.01 540.064 496.485 531.911 501.122 524.978C505.759 518.044 512.349 512.643 520.058 509.458C527.767 506.273 536.247 505.447 544.426 507.085C552.604 508.723 560.112 512.751 566 518.66V518.65ZM812.74 595.45C798.66 654 754.14 691.23 691.74 692.97C633.68 694.59 575.56 693.32 517.46 693.32V693.06C461.3 693.06 405.08 694.67 349 692.65C278.38 690.12 221.3 639.82 210.71 574.37C198.09 496.48 230.36 430.97 299.91 404.48C328.43 393.62 348.62 377.97 368.37 355.34C457.18 253.59 618.03 274.13 680.37 395.4C695.19 424.25 711.2 443.84 742.51 457.17C799.08 481.29 825.88 540.62 812.69 595.45H812.74ZM440.13 423.62H415.7V612.5H440.13V423.62ZM601.95 423.62H577.41V499.41C565.603 487.216 551.873 481.116 536.22 481.11C517.64 481.11 501.803 487.68 488.71 500.82C475.616 513.96 469.046 529.82 469 548.4C469 566.973 475.553 582.83 488.66 595.97C501.766 609.11 517.603 615.68 536.17 615.68C551.823 615.68 565.553 609.58 577.36 597.38V612.5H602L601.95 423.62Z" fill="white"/>
</g>
<defs>
<clipPath id="clip0_2_2484">
<rect width="1024" height="1024" fill="white"/>
</clipPath>
</defs>
</svg>

<svg xmlns="http://www.w3.org/2000/svg" viewBox="0 0 1024 1024">
   <circle cx="512" cy="512" r="512" style="fill:#3093fb"/>
   <path d="M566 518.65q9.33 9.32 11.46 20.78v18.06q-2.13 11.33-11.46 20.66a42.14 42.14 0 1 1 0-59.49Zm246.74 76.8c-14.08 58.55-58.6 95.78-121 97.52-58.06 1.62-116.18.35-174.28.35v-.26c-56.16 0-112.38 1.61-168.46-.41-70.62-2.53-127.7-52.83-138.29-118.28-12.62-77.89 19.65-143.4 89.2-169.89 28.52-10.86 48.71-26.51 68.46-49.14 88.81-101.75 249.66-81.21 312 40.06 14.82 28.85 30.83 48.44 62.14 61.77 56.57 24.12 83.37 83.45 70.18 138.28ZM440.13 423.62H415.7V612.5h24.43Zm161.82 0h-24.54v75.79q-17.71-18.29-41.19-18.3-27.87 0-47.51 19.71T469 548.4q0 27.86 19.66 47.57t47.51 19.71q23.48 0 41.19-18.3v15.12H602Z" style="fill:#fff"/>
</svg>
